X:93
M:4/4
L:1/4
K:Ab
c/ c/ =B/ c/ d c | c B F2 | G/ A/ =A/ B/ e d | (c2 d) z | E/ c/ =B/ c/ d c | c B F2 | G/ e/ d/ G/ c B | A3 z | E F G A | d2 G z | e B e =B | c3 z | E F G A | B2 F z | !sintro!G/ e/ d/ G/ c B | A3 z !eintro!|]
